X: 35530
T: Rumours Of A Dart, The
R: jig
M: 6/8
K: Dmajor
G|:AFD ~D3|DAd edB|AFD DBG|AFD EFG|
AFD DED|DAd def|g2e fed|1 edB BdB:|2 edB B2d||
dee edB|g2f edB|AdB ~A3|BAF ABd|
~e3 edB|g2f edB|ABd eag|fdc dgf|
dee edB|fgf edB|AdB ~A3|BAF AFD|
~E3 GBd|GAA def|fge fed|edB BdB||

